X:204
%%etbk:tnset id:357,pos:2,rep:3x,ant:
%%etbk:wsite http://www.thesession.org/tunes/display/581
%%etbk:pldat 2016-01-27T15:57,2016-01-04T18:25,2016-01-02T13:12,2015-12-03T18:32,2015-12-02T16:15,2015-12-01T15:46,2015-11-30T18:34,2015-11-29T13:48,2015-11-26T18:01,2015-11-04T15:22,2015-11-03T15:46,2015-11-02T18:31,2015-11-01T15:48,2015-10-31T16:47,2015-10-14T17:33,2015-10-08T18:06,2015-10-07T15:29,2015-10-06T16:06,2015-10-03T17:13,2015-09-30T15:11,2015-09-28T18:04,2015-08-30T16:10,2015-08-28T18:17,2015-08-24T19:05,2015-08-19T16:19,2015-08-18T15:06,2015-08-15T16:08,2015-08-11T15:41,2015-08-10T18:06,2015-08-09T16:31,2015-07-31T17:05,2015-07-29T16:37,2015-07-27T17:57,2015-07-25T13:36,2015-07-24T18:11,2015-07-18T17:09
T: Graf Spee, The
H: Created 2014-09-30 /  Modified 2015-07-24
M: 4/4
L: 1/8
R: reel
K: Cmaj
|:!3!E2!1!C!2!D !1!E!2!GGG | !3!A!2!G!5!cG AGcG | !1!E!2!D!1!C!2!D !1!E!2!GGG | !3!AG!5!c!2!G !1!E!1!DD2:|
| !5!e3d !3!c2c!2!A | !1!G2!2!EE !1!GA!3!cd | !5!e2ed !3!c2c!2!A | !1!G!3!E!1!C!2!D !3!E!1!DD2 |
!5!e3d !3!c2cA | !1!G2!2!EE !1!GA!3!c!4!d | !2!e!5!aag !2!eee!1!d | !4!c!2!A!1!G!2!E E!1!DD2 |
| !4!g3g gede | !4!a3a aga!3!g | !2!efe!1!d !2!cBc!3!d | !4!e!2!e!5!ae !4!gedg |
!2!e!4!g!3!g!4!g !4!gede | !5!a3a agag | !2!eeed !2!cBcd | !4!e!2!e!5!ae gedg |
|:!5!e!3!c!2!cc !3!c!1!G!2!A!1!G | !1!E!2!G!3!A!4!B !5!cA!2!G!1!E | !1!GA!3!cd !5!e!3!c!4!d!3!c | !2!A!1!G!3!c!1!G !2!E!1!DD2:|
| !2!(3ef!4!g !1!c!4!g !2!(3efg !1!c!4!g | !3!(3fg!5!a !1!d!5!a !3!(3fga !1!d!5!a | !2!(3efg cg (3efg !1!c!4!g | !1!AB!3!c!1!d !4!ge!1!d!4!g |
!2!e2!5!a!2!e !4!g!2!e!3!f!1!d | !5!e!3!c!4!d!2!B !3!c!2!A!1!G!2!E | !1!GA!3!cd !5!e!3!c!4!dc | !2!A!1!G!3!c!1!G !2!E!1!DD2||


